src/assets/outline/Zoom.svg

<svg width="24" height="24" viewBox="0 0 24 24"  xmlns="http://www.w3.org/2000/svg">
<path d="M8.76999 15.99C7.83999 15.99 6.96001 15.63 6.29001 14.97C5.62001 14.3 5.25 13.42 5.25 12.47V9.67001C5.25 8.75001 6.00001 8 6.92001 8H10.61C12.55 8 14.13 9.57999 14.13 11.52V14.29C14.13 15.21 13.38 15.96 12.47 15.96L8.79001 15.99C8.79001 15.99 8.77999 15.99 8.76999 15.99ZM6.92001 9.51001C6.82001 9.51001 6.75 9.58999 6.75 9.67999V12.48C6.75 13.02 6.96001 13.53 7.35001 13.91C7.73001 14.29 8.25001 14.53 8.79001 14.5L12.47 14.47C12.56 14.47 12.64 14.39 12.64 14.3V11.53C12.64 10.42 11.73 9.51001 10.62 9.51001H6.92001Z" />
<path d="M18 15.5306C17.85 15.5306 17.71 15.4906 17.58 15.4006L14.81 13.5506C14.6 13.4106 14.48 13.1806 14.48 12.9306V11.0806C14.48 10.8306 14.61 10.5906 14.81 10.4606L17.58 8.61056C17.81 8.46056 18.11 8.44059 18.35 8.57059C18.59 8.70059 18.75 8.95059 18.75 9.23059V14.7706C18.75 15.0506 18.6 15.3006 18.35 15.4306C18.24 15.5006 18.12 15.5306 18 15.5306ZM15.98 12.5306L17.25 13.3806V10.6406L15.98 11.4906V12.5306Z" />
<path d="M12 22.75C6.07 22.75 1.25 17.93 1.25 12C1.25 6.07 6.07 1.25 12 1.25C17.93 1.25 22.75 6.07 22.75 12C22.75 17.93 17.93 22.75 12 22.75ZM12 2.75C6.9 2.75 2.75 6.9 2.75 12C2.75 17.1 6.9 21.25 12 21.25C17.1 21.25 21.25 17.1 21.25 12C21.25 6.9 17.1 2.75 12 2.75Z" />
</svg>

<?xml version="1.0" encoding="UTF-8"?>
<svg width="24" height="24" viewBox="0 0 24 24" xmlns="http://www.w3.org/2000/svg">
 <path d="m8.77 15.99c-0.93 0-1.81-0.36-2.48-1.02-0.67-0.67-1.04-1.55-1.04-2.5v-2.8c0-0.92 0.75001-1.67 1.67-1.67h3.69c1.94 0 3.52 1.58 3.52 3.52v2.77c0 0.92-0.75 1.67-1.66 1.67l-3.68 0.03h-0.02002zm-1.85-6.48c-0.1 0-0.17001 0.07998-0.17001 0.16998v2.8c0 0.54 0.21001 1.05 0.60001 1.43 0.38 0.38 0.9 0.62 1.44 0.59l3.68-0.03c0.09 0 0.17-0.08 0.17-0.17v-2.77c0-1.11-0.91-2.02-2.02-2.02h-3.7z"/>
 <path d="m18 15.531c-0.15 0-0.29-0.04-0.42-0.13l-2.77-1.85c-0.21-0.14-0.33-0.37-0.33-0.62v-1.85c0-0.25 0.13-0.49 0.33-0.62l2.77-1.85c0.23-0.15 0.53-0.16997 0.77-0.03997s0.4 0.38 0.4 0.66v5.54c0 0.28-0.15 0.53-0.4 0.66-0.11 0.07-0.23 0.1-0.35 0.1zm-2.02-3 1.27 0.85v-2.74l-1.27 0.85v1.04z"/>
 <path d="m12 22.75c-5.93 0-10.75-4.82-10.75-10.75s4.82-10.75 10.75-10.75 10.75 4.82 10.75 10.75-4.82 10.75-10.75 10.75zm0-20c-5.1 0-9.25 4.15-9.25 9.25s4.15 9.25 9.25 9.25 9.25-4.15 9.25-9.25-4.15-9.25-9.25-9.25z"/>
</svg>
